app/style/graphics/spriteSheets/text/game_over.svg

<?xml version="1.0" encoding="utf-8"?>
<!-- Generator: Adobe Illustrator 27.8.1, SVG Export Plug-In . SVG Version: 6.00 Build 0)  -->
<svg version="1.1" id="Calque_1" xmlns="http://www.w3.org/2000/svg" xmlns:xlink="http://www.w3.org/1999/xlink" x="0px" y="0px"
	 viewBox="0 0 80 16" style="enable-background:new 0 0 80 16;" xml:space="preserve">
<style type="text/css">
	.st0{display:none;fill:#FF0000;}
	.st1{display:none;fill-rule:evenodd;clip-rule:evenodd;fill:#FF0000;}
	.st2{fill:#FF0049;}
	.st3{font-family:'MobyBold';}
	.st4{font-size:11px;}
</style>
<path class="st0" d="M3,4h5v1H4v1H3v3h1v1h2V8H5V7h3v4H3v-1H2V9H1V6h1V5h1V4z"/>
<path class="st1" d="M9,11V6h1V5h1V4h3v1h1v1h1v5h-2V9h-3v2H9z M11,8V6h1V5h1v1h1v2H11z"/>
<path class="st0" d="M17,4v7h2V8h1v1h1V8h1v3h2V4h-2v1h-1v1h-1V5h-1V4H17z"/>
<path class="st0" d="M26,4v7h6v-1h-4V8h3V7h-3V5h4V4H26z"/>
<path class="st1" d="M48,10V5h1V4h5v1h1v5h-1v1h-5v-1H48z M50,10V5h3v5H50z"/>
<path class="st0" d="M58,4h-2v4h1v1h1v1h1v1h1v-1h1V9h1V8h1V4h-2v3h-1v1h-1V7h-1V4z"/>
<path class="st0" d="M65,4v7h6v-1h-4V8h3V7h-3V5h4V4H65z"/>
<path class="st1" d="M72,11V4h6v1h1v3h-2v1h1v1h1v1h-3v-1h-1V9h-1v2H72z M74,8V5h3v2h-1v1H74z"/>
<text transform="matrix(1 0 0 1 0 11)" class="st2 st3 st4">GAME OVER</text>
</svg>

<svg width="80" height="16" viewBox="0 0 80 16" fill="none" xmlns="http://www.w3.org/2000/svg">
<path d="M3 4H8V5H4V6H3V9H4V10H6V8H5V7H8V11H3V10H2V9H1V6H2V5H3V4Z" fill="#FF0000"/>
<path fill-rule="evenodd" clip-rule="evenodd" d="M9 11V6H10V5H11V4H14V5H15V6H16V11H14V9H11V11H9ZM11 8V6H12V5H13V6H14V8H11Z" fill="#FF0000"/>
<path d="M17 4V11H19V8H20V9H21V8H22V11H24V4H22V5H21V6H20V5H19V4H17Z" fill="#FF0000"/>
<path d="M26 4V11H32V10H28V8H31V7H28V5H32V4H26Z" fill="#FF0000"/>
<path fill-rule="evenodd" clip-rule="evenodd" d="M48 10V5H49V4H54V5H55V10H54V11H49V10H48ZM50 10V5H53V10H50Z" fill="#FF0000"/>
<path d="M58 4H56V8H57V9H58V10H59V11H60V10H61V9H62V8H63V4H61V7H60V8H59V7H58V4Z" fill="#FF0000"/>
<path d="M65 4V11H71V10H67V8H70V7H67V5H71V4H65Z" fill="#FF0000"/>
<path fill-rule="evenodd" clip-rule="evenodd" d="M72 11V4H78V5H79V8H77V9H78V10H79V11H76V10H75V9H74V11H72ZM74 8V5H77V7H76V8H74Z" fill="#FF0000"/>
</svg>
